icons/communication/message-plus-24.svg

<svg width="24" height="24" viewBox="0 0 24 24" fill="none" xmlns="http://www.w3.org/2000/svg">
<path d="M13.25 8.25C13.25 7.83579 12.9142 7.5 12.5 7.5C12.0858 7.5 11.75 7.83579 11.75 8.25V10.5H9.25C8.83579 10.5 8.5 10.8358 8.5 11.25C8.5 11.6642 8.83579 12 9.25 12H11.75V14.75C11.75 15.1642 12.0858 15.5 12.5 15.5C12.9142 15.5 13.25 15.1642 13.25 14.75V12H15.75C16.1642 12 16.5 11.6642 16.5 11.25C16.5 10.8358 16.1642 10.5 15.75 10.5H13.25V8.25Z" fill="black"/>
<path fill-rule="evenodd" clip-rule="evenodd" d="M3.00001 11.5C3.00001 12.8408 3.27821 14.1184 3.78057 15.2767L2.08244 19.3131C1.7836 20.0234 2.36666 20.7906 3.13105 20.6928L8.3135 20.03C9.57728 20.6513 10.9989 21 12.5 21C17.7467 21 22 16.7467 22 11.5C22 6.25329 17.7467 2 12.5 2C7.2533 2 3.00001 6.25329 3.00001 11.5ZM12.5 3.5C8.08173 3.5 4.50001 7.08172 4.50001 11.5C4.50001 12.7385 4.78091 13.9092 5.28177 14.9539C5.39825 15.1969 5.37227 15.4713 5.23708 15.6828L3.80161 19.0948L8.34898 18.5132C8.48487 18.4958 8.61691 18.516 8.73469 18.5656C8.75906 18.5752 8.78317 18.5862 8.80691 18.5986C9.91092 19.1742 11.1663 19.5 12.5 19.5C16.9183 19.5 20.5 15.9183 20.5 11.5C20.5 7.08172 16.9183 3.5 12.5 3.5Z" fill="black"/>
</svg>

<svg xmlns="http://www.w3.org/2000/svg" width="24" height="24"><path d="M13.25 8.25a.75.75 0 00-1.5 0v2.25h-2.5a.75.75 0 000 1.5h2.5v2.75a.75.75 0 001.5 0V12h2.5a.75.75 0 000-1.5h-2.5V8.25z"/><path fill-rule="evenodd" d="M3 11.5c0 1.34.278 2.618.78 3.777l-1.698 4.036a1 1 0 001.05 1.38l5.181-.663A9.5 9.5 0 103 11.5zm9.5-8a8 8 0 00-7.218 11.454.75.75 0 01-.045.729l-1.435 3.412 4.547-.582a.746.746 0 01.458.086A8 8 0 1012.5 3.5z"/></svg>
